flaticon/productivity-and-development/briefcase.svg

<svg xmlns="http://www.w3.org/2000/svg" width="32" height="32" viewBox="0 0 24 24">
    <path d="M 16.761719 4.871094 L 16.761719 1.871094 C 16.761719 0.839844 15.972656 0 15.003906 0 L 8.996094 0 C 8.027344 0 7.238281 0.839844 7.238281 1.871094 L 7.238281 4.871094 L 0 4.871094 L 0 24 L 24 24 L 24 4.871094 Z M 8.261719 1.871094 C 8.261719 1.402344 8.589844 1.019531 8.996094 1.019531 L 15.003906 1.019531 C 15.410156 1.019531 15.738281 1.402344 15.738281 1.871094 L 15.738281 4.871094 L 8.261719 4.871094 Z M 22.980469 5.890625 L 22.980469 13.148438 L 19.507812 13.148438 L 19.507812 10.679688 L 14.703125 10.679688 L 14.703125 13.148438 L 9.296875 13.148438 L 9.296875 10.679688 L 4.492188 10.679688 L 4.492188 13.148438 L 1.019531 13.148438 L 1.019531 5.890625 Z M 18.484375 11.699219 L 18.484375 15.621094 L 15.726562 15.621094 L 15.726562 11.699219 Z M 8.273438 11.699219 L 8.273438 15.621094 L 5.515625 15.621094 L 5.515625 11.699219 Z M 1.019531 22.980469 L 1.019531 14.171875 L 4.492188 14.171875 L 4.492188 16.644531 L 9.296875 16.644531 L 9.296875 14.171875 L 14.703125 14.171875 L 14.703125 16.644531 L 19.507812 16.644531 L 19.507812 14.171875 L 22.980469 14.171875 L 22.980469 22.980469 Z M 1.019531 22.980469"/>
</svg>

<svg xmlns="http://www.w3.org/2000/svg" width="32" height="32" viewBox="0 0 24 24">
    <path d="M16.762 4.871v-3C16.762.84 15.972 0 15.004 0H8.996c-.969 0-1.758.84-1.758 1.871v3H0V24h24V4.871zm-8.5-3c0-.469.328-.851.734-.851h6.008c.406 0 .734.382.734.851v3H8.262zm14.718 4.02v7.257h-3.472V10.68h-4.805v2.468H9.297V10.68H4.492v2.468H1.02V5.891zm-4.496 5.808v3.922h-2.757V11.7zm-10.21 0v3.922H5.515V11.7zM1.02 22.98v-8.808h3.472v2.473h4.805v-2.473h5.406v2.473h4.805v-2.473h3.472v8.808zm0 0"/>
</svg>
